X: 1424
T: N`olur Bir An Bana Olsan...
C: Mildan Niyazi Ayomak
O: Turkey
F: http://compmusic.upf.edu/node/140
N: hicazkar--sarki--aksak--nolur_bir_an--mildan_niyazi_bey
N: makam= hicazkar
N: form= sarki
N: usul= aksak = 9/8
M: 9/8
L: 1/16
K: C _1/4B _7/8e _7/8A ^f
Q: 1/4=120
%%MIDI tuningsystem comma53
f2g4=a2 _7/8bag2 a4 g2 | f2 g4 =a2fe edd4z2  | \
w:  N`o lur  *  bir  *  *  an   |  ba na  *  ol *  *  *  san   | 
f2g4d2 edef g4 z2 | 
w:  ve fâ *  SAZ  | 
=a2 _7/8b4 f2gf gab6  | =a2c'2 b2a2 g3f =e4 f2 | \
w:  ve fâ *  SAZ  |  ve fâ  | 
g6 d2ed efg4z2  | 
w:  kâr  SAZ  | 
f2g4b2 a2gf gfed e2 | f2 g=af2 e2fe ede4z2  | 
w:  Be hey  *  zâ *  *  lim   |  mü rüv *  *  *  vet *  *  *  siz   | 
c2e6 cBcd e4 z2 | c2 d6GA Bcd4z2  | B2c4d2 B2A2 GAB2 AG | 
w:  ce fâ SAZ  |  ce fâ SAZ  |  ce fâ  | 
G6 d2ed efg6  | f2g4b2 a2gf gfed e2 | \
w:  kâr  SAZ  |  Be hey  *  zâ *  *  lim   | 
f2 g=af2 e2fe ede4z2  | 
w:  mü rüv *  *  *  vet *  *  *  siz   | 
c2e6 cBcd e4 z2 | c2 d6GA Bcd4z2  | B2c4d2 B2A2 GAB2 AG | 
w:  ce fâ SAZ  |  ce fâ SAZ  |  ce fâ  | 
G6 c2B2 d2c4z2  | c2c4d2 d4 g4 _1/4e2 | \
w:  kâr  SAZ  |  Bu lun *  maz  der  | 
=f3_1/4ed2 f2e3dc4z2  | f2g4d2 edef g6 | 
w:  di *  me  *  baş *  ka   |  de vâ *  SAZ  | 
=a2 _7/8b4 f2gf gab4z2  | =a2c'2 b2a2 g3f =e4 f2 | \
w:  de vâ *  SAZ  |  de vâ  | 
g6 d2ed efg4z2  | 
w:  kâr  *  SAZ  | 
f2g4b2 a2gf gfed e2 | f2 g=af2 e2fe ede4z2  | 
w:  Be hey  *  zâ *  *  lim   |  mü rüv *  *  *  vet *  *  *  siz   | 
c2e6 cBcd e4 z2 | c2 d6GA Bcd4z2  | B2c4d2 B2A2 GAB2 AG | 
w:  ce fâ SAZ  |  ce fâ SAZ  |  ce fâ  | 
G6 d2ed efg6  | f2g4b2 a2gf gfed e2 | \
w:  kâr  SAZ  |  Be hey  *  zâ *  *  lim   | 
f2 g=af2 e2fe ede4z2  | 
w:  mü rüv *  *  *  vet *  *  *  siz   | 
c2e6 cBcd e4 z2 | c2 d6GA Bcd4z2  | B2c4d2 B2A2 GAB2 AG | 
w:  ce fâ SAZ  |  ce fâ SAZ  |  ce fâ  | 
G6 D2ED EFG6  | |


